packages/vibrant-icons/assets/icons/Video/Regular.svg

<svg width="24" height="24" viewBox="0 0 24 24" fill="none" xmlns="http://www.w3.org/2000/svg">
<path d="M2.3499 21.8504C2.23945 21.8504 2.1499 21.7609 2.1499 21.6504V2.35039C2.1499 2.23993 2.23945 2.15039 2.3499 2.15039H21.6499C21.7604 2.15039 21.8499 2.23993 21.8499 2.35039V21.6504C21.8499 21.7609 21.7604 21.8504 21.6499 21.8504H2.3499ZM19.6499 19.6504V4.35039H4.3499V19.6504H19.6499ZM9.3999 8.00035C9.3999 7.92211 9.48568 7.87418 9.55231 7.91518L16.0525 11.9152C16.116 11.9543 16.116 12.0465 16.0525 12.0856L9.55231 16.0856C9.48568 16.1266 9.3999 16.0787 9.3999 16.0004V8.00035Z" fill="#0C0C0C"/>
</svg>

<svg xmlns="http://www.w3.org/2000/svg" width="24" height="24" fill="none"><path fill="#0C0C0C" d="M2.35 21.85a.2.2 0 0 1-.2-.2V2.35c0-.11.09-.2.2-.2h19.3c.11 0 .2.09.2.2v19.3a.2.2 0 0 1-.2.2zm17.3-2.2V4.35H4.35v15.3zM9.4 8a.1.1 0 0 1 .152-.085l6.5 4a.1.1 0 0 1 0 .17l-6.5 4A.1.1 0 0 1 9.4 16z"/></svg>
